Obsidian/actions/16s/fitbest.svg

<svg height="16" viewBox="0 0 16 16" width="16" xmlns="http://www.w3.org/2000/svg"><path d="m8 0-1.5 2-1.5 2h2v3h-3v-2l-2 1.5-2 1.5 2 1.5 2 1.5v-2h3v3h-2l1.5 2 1.5 2 1.5-2 1.5-2h-2v-3h3v2l2-1.5 2-1.5-2-1.5-2-1.5v2h-3v-3h2l-1.5-2z" fill="#bebebe"/></svg>

<svg xmlns="http://www.w3.org/2000/svg" width="16" height="16" version="1.1" viewBox="0 0 16 16">
 <defs>
  <style id="current-color-scheme" type="text/css">
   .ColorScheme-Text { color:#bebebe; } .ColorScheme-Highlight { color:#4285f4; }
  </style>
 </defs>
 <path style="fill:currentColor" class="ColorScheme-Text" d="M 8 0 L 6.5 2 L 5 4 L 7 4 L 7 7 L 4 7 L 4 5 L 2 6.5 L 0 8 L 2 9.5 L 4 11 L 4 9 L 7 9 L 7 12 L 5 12 L 6.5 14 L 8 16 L 9.5 14 L 11 12 L 9 12 L 9 9 L 12 9 L 12 11 L 14 9.5 L 16 8 L 14 6.5 L 12 5 L 12 7 L 9 7 L 9 4 L 11 4 L 9.5 2 L 8 0 z"/>
</svg>
